X:5007
T:Eric's Waltz
R:Waltz
C:Eric Elsener
O:France
M:3/4
L:1/8
Q:1/4=120
K:G
D2|"G"G4 A2|"Bm"B4 d2|"C"c2 cd cB|"D"A4 c2|"G"B2 Bc BA|"Em"G4 B2|"C"A2 AG FG|"D"A4 D2|
"G"G4 A2|"Bm"B4 d2|"C"c2 cd cB|"D"A4 c2|"G"B2 Bc BA|"D"G2 A2 F2|"G"G2 "D"FG BA|"G"G4 "Bm"d2|
"C"c2 cd cB|"D"A4 c2|"G"B2 Bc BA|"Em"G4 B2|"C"A2 AB AG|"D"F2 G2 A2|"G"B2 BA GA|"Bm"B4 d2|
"C"c2 cd cB|"D"A4 c2|"G"B2 Bc BA|"Em"G4 B2|"D"A2 AB AG|"D"F2 G2 A2|"G"G2 FG "D"BA|"G"G4|]
% --------------------------------- F ---------------------------------------

